packages/katcn/src/icons/svg/order.svg

<svg xmlns="http://www.w3.org/2000/svg" fill="none" viewBox="0 0 24 24"><path fill="#000" d="M17.7 2H6.3C3.9 2 2 3.9 2 6.3v11.5C2 20.1 3.9 22 6.3 22h11.5c2.4 0 4.3-1.9 4.3-4.3V6.3C22 3.9 20.1 2 17.7 2M20 17.7c0 1.3-1 2.3-2.3 2.3H6.3C5 20 4 19 4 17.7V6.3C4 5 5 4 6.3 4h1.5v8q0 .6.6.9c0 .1.2.1.3.1.2 0 .4-.1.6-.2l2.7-2 2.7 2c.3.2.7.3 1 .1s.6-.5.6-.9V6c0-.6-.4-1-1-1s-1 .4-1 1v4l-1.7-1.3q-.6-.45-1.2 0L9.7 10V4h8C19 4 20 5 20 6.3z"/><path fill="#000" d="M11.2 16.7H6.3c-.6 0-1 .4-1 1s.4 1 1 1h4.9c.6 0 1-.4 1-1s-.5-1-1-1"/></svg>

<svg width="24" height="24" viewBox="0 0 24 24" fill="none" xmlns="http://www.w3.org/2000/svg">
<path d="M17.7 2H6.3C3.9 2 2 3.9 2 6.3V17.8C2 20.1 3.9 22 6.3 22H17.8C20.2 22 22.1 20.1 22.1 17.7V6.3C22 3.9 20.1 2 17.7 2ZM20 17.7C20 19 19 20 17.7 20H6.3C5 20 4 19 4 17.7V6.3C4 5 5 4 6.3 4H7.8V12C7.8 12.4 8 12.7 8.4 12.9C8.4 13 8.6 13 8.7 13C8.9 13 9.1 12.9 9.3 12.8L12 10.8L14.7 12.8C15 13 15.4 13.1 15.7 12.9C16 12.7 16.3 12.4 16.3 12V6C16.3 5.4 15.9 5 15.3 5C14.7 5 14.3 5.4 14.3 6V10L12.6 8.7C12.2 8.4 11.8 8.4 11.4 8.7L9.7 10V4H17.7C19 4 20 5 20 6.3V17.7Z" fill="black"/>
<path d="M11.2 16.7H6.29999C5.69999 16.7 5.29999 17.1 5.29999 17.7C5.29999 18.3 5.69999 18.7 6.29999 18.7H11.2C11.8 18.7 12.2 18.3 12.2 17.7C12.2 17.1 11.7 16.7 11.2 16.7Z" fill="black"/>
</svg>
